X:1
T:Aus tiefer Not (mel. 2, 4vv-1. XLVIII)
T:Michael Praetorius
T:Aus tiefer Not (mel. 2, 4vv-2, XLIX)
C:Michael Praetorius
%%score [ 1 2 3 4 ]
L:1/8
Q:1/4=100
M:4/2
K:C
V:1 treble nm="Soprano 1" snm="S 1"
V:2 treble nm="Soprano 2" snm="S 2"
V:3 treble nm="Alto" snm="A"
V:4 bass nm="Bass" snm="B"
V:1
 c4 B2 c2 d4 d4 | c2 d2 e8 f4 | e2 d2 c4 B2 c2 d4 |[M:2/2] c8 :|[M:4/2] c4 d2 f2 e4 c4 | %5
w: Aus tie- fer Not schrei|ich zu dir, Herr|Gott, er- hör, _ mein Ru-|fen.|Denn so du willst das|
w: Dein gnä- dig Oh- ren|kehr zu mir, und|mei- ner Bitt _ sie öf-|fen.||
 d2 B2 A8 B4 | G2 G2 d4 e4 f2 d2 | c8 g4 f2 e2 | c4 B2 c2 d8 | c16 |] z16 | %11
w: se- hen an, was|Sünd und Un- recht ist ge-|tan, wer kann, Herr,|für _ dir blei-|ben?||
w: ||||||
"^Alternatively" g4 e2 d2 c4 B2 c2 | d8 c8- | c16 |] %14
w: wer kann, Herr, für _ dir|blei- ben?|_|
w: |||
V:2
 G4 G2 G2 B4 A4 | A2 B2 c8 c4 | c2 G2 A4 G2 A2 B4 |[M:2/2] G8 :|[M:4/2] G4 G2 A2 G4 E4 | %5
w: Aus tie- fer Not schrei|ich zu dir, Herr|Gott, er- hör, _ mein Ru-|fen.|Denn so du willst das|
w: Dein gnä- dig Oh- ren|kehr zu mir, und|mei- ner Bitt _ sie öf-|fen.||
 A2 ^G2 A8 D4 | E2 E2 F4 E2 A4 B2 | G8 B4 c2 c2 | A4 d2 c4 BA B4 | G16 |] z16 | d4 G2 G2 A4 G4 | %12
w: se- hen an, was|Sünd und Un- recht ist ge-|tan, wer kann, Herr,|für dir blei- * * *|ben?||wer kann, Herr, für dir|
w: |||||||
 A4 G4 G8- | G16 |] %14
w: blei- * ben?|_|
w: ||
V:3
 E4 D2 E2 D4 F4 | E2 G2 G8 A4 | G2 G2 E6 E2 G4 |[M:2/2] E8 :|[M:4/2] E4 B,2 D2 B,4 C4 | %5
w: Aus tie- fer Not schrei|ich zu dir, Herr|Gott, er- hör, mein Ru-|fen.|Denn so du willst das|
w: Dein gnä- dig Oh- ren|kehr zu mir, und|mei- ner Bitt sie öf-|fen.||
 F2 E2 E8 B,4 | C2 C2 A,4 C4 D2 D2 | E8 D4 A2 G2 | F3 E D2 E2 D8 | E16 |] z16 | %11
w: se- hen an, was|Sünd und Un- recht ist ge-|tan, wer kann, Herr,|für _ _ dir blei-|ben?||
w: ||||||
 B,4 C2 D2 E2 F2 D2 C2- | C2 B,A, B,4 C6 D2 | E16 |] %14
w: wer kann, Herr, für dir blei- *||ben?|
w: |||
V:4
 C,4 G,2 C2 G,4 D,4 | A,2 G,2 C8 F,4 | C2 B,2 A,4 E,2 A,2 G,4 |[M:2/2] C,8 :| %4
w: Aus tie- fer Not schrei|ich zu dir, Herr|Gott, er- hör, _ mein Ru-|fen.|
w: Dein gnä- dig Oh- ren|kehr zu mir, und|mei- ner Bitt _ sie öf-|fen.|
[M:4/2] C4 G,2 D,2 E,4 A,4 | D,2 E,2 A,8 G,4 | C,2 E,2 D,4 A,4 F,2 G,2 | C8 G,4 A,2 C2 | %8
w: Denn so du willst das|se- hen an, was|Sünd und Un- recht ist ge-|tan, wer kann, Herr,|
w: ||||
 F,4 G,4 G,8 | C,16 |] z16 | G,4 C2 B,2 A,2 G,F, G,2 E,2 | F,4 G,4 C,8- | C,16 |] %14
w: für dir blei-|ben?||wer kann, Herr, für _ _ _ dir|blei- * ben?|_|
w: ||||||

